src/assets/outline/MaximizeCircle.svg

<?xml version="1.0" encoding="UTF-8"?>
<svg width="24" height="24" viewBox="0 0 24 24" xmlns="http://www.w3.org/2000/svg">
 <path d="m21 7.75c-0.41 0-0.75-0.34-0.75-0.75v-3.25h-3.25c-0.41 0-0.75-0.34-0.75-0.75s0.34-0.75 0.75-0.75h4c0.41 0 0.75 0.34 0.75 0.75v4c0 0.41-0.34 0.75-0.75 0.75z"/>
 <path d="m15 9.75c-0.19 0-0.3801-0.06997-0.5301-0.21997-0.29-0.29-0.29-0.77006 0-1.0601l6-6c0.29-0.29 0.7701-0.29 1.0601 0s0.29 0.77006 0 1.0601l-6 6c-0.15 0.15-0.34 0.21997-0.53 0.21997z"/>
 <path d="m7 21.75h-4c-0.41 0-0.75-0.34-0.75-0.75v-4c0-0.41 0.34-0.75 0.75-0.75s0.75 0.34 0.75 0.75v3.25h3.25c0.41 0 0.75 0.34 0.75 0.75s-0.34 0.75-0.75 0.75z"/>
 <path d="m3 21.75c-0.19 0-0.38003-0.07-0.53003-0.22-0.29-0.29-0.29-0.7701 0-1.0601l6-6c0.29-0.29 0.77006-0.29 1.0601 0s0.29 0.7701 0 1.0601l-6 6c-0.15 0.15-0.34003 0.22-0.53003 0.22z"/>
 <path d="m2.2 14.75c-0.35 0-0.66004-0.25-0.73004-0.6-0.14-0.7-0.21997-1.43-0.21997-2.15 0-5.93 4.82-10.75 10.75-10.75 0.73 0 1.46 0.06997 2.17 0.21997 0.41 0.08 0.67 0.48001 0.59 0.88001-0.08 0.41-0.49 0.66002-0.88 0.59002-0.61-0.12-1.24-0.19-1.87-0.19-5.1 0-9.25 4.15-9.25 9.25 0 0.62 0.06 1.25 0.19 1.85 0.08 0.41-0.18002 0.8-0.59002 0.88-0.06 0.02-0.10998 0.02-0.15998 0.02z"/>
 <path d="m12 22.75c-0.73 0-1.4599-0.0699-2.1699-0.2199-0.41-0.08-0.67003-0.48-0.59003-0.88 0.08-0.41 0.49-0.6601 0.87997-0.5901 0.61 0.12 1.24 0.19 1.87 0.19 5.1 0 9.25-4.15 9.25-9.25 0-0.62-0.06-1.2399-0.18-1.8499-0.08-0.41004 0.1801-0.80004 0.5901-0.88004 0.4-0.08 0.8 0.17997 0.88 0.58997 0.14 0.69997 0.2099 1.42 0.2099 2.14 0.01 5.93-4.81 10.75-10.74 10.75z"/>
</svg>

<svg width="24" height="24" viewBox="0 0 24 24"  xmlns="http://www.w3.org/2000/svg">
<path d="M21 7.75C20.59 7.75 20.25 7.41 20.25 7V3.75H17C16.59 3.75 16.25 3.41 16.25 3C16.25 2.59 16.59 2.25 17 2.25H21C21.41 2.25 21.75 2.59 21.75 3V7C21.75 7.41 21.41 7.75 21 7.75Z" />
<path d="M15 9.74997C14.81 9.74997 14.6199 9.68 14.4699 9.53C14.1799 9.24 14.1799 8.75994 14.4699 8.46994L20.4699 2.46994C20.7599 2.17994 21.24 2.17994 21.53 2.46994C21.82 2.75994 21.82 3.24 21.53 3.53L15.53 9.53C15.38 9.68 15.19 9.74997 15 9.74997Z" />
<path d="M7 21.75H3C2.59 21.75 2.25 21.41 2.25 21V17C2.25 16.59 2.59 16.25 3 16.25C3.41 16.25 3.75 16.59 3.75 17V20.25H7C7.41 20.25 7.75 20.59 7.75 21C7.75 21.41 7.41 21.75 7 21.75Z" />
<path d="M2.99997 21.75C2.80997 21.75 2.61994 21.68 2.46994 21.53C2.17994 21.24 2.17994 20.7599 2.46994 20.4699L8.46994 14.4699C8.75994 14.1799 9.24 14.1799 9.53 14.4699C9.82 14.7599 9.82 15.24 9.53 15.53L3.53 21.53C3.38 21.68 3.18997 21.75 2.99997 21.75Z" />
<path d="M2.20001 14.75C1.85001 14.75 1.53997 14.5 1.46997 14.15C1.32997 13.45 1.25 12.72 1.25 12C1.25 6.07 6.07 1.25 12 1.25C12.73 1.25 13.46 1.31997 14.17 1.46997C14.58 1.54997 14.84 1.94998 14.76 2.34998C14.68 2.75998 14.27 3.01 13.88 2.94C13.27 2.82 12.64 2.75 12.01 2.75C6.91001 2.75 2.76001 6.9 2.76001 12C2.76001 12.62 2.82001 13.25 2.95001 13.85C3.03001 14.26 2.76999 14.65 2.35999 14.73C2.29999 14.75 2.25001 14.75 2.20001 14.75Z" />
<path d="M12 22.75C11.27 22.75 10.5401 22.6801 9.83006 22.5301C9.42006 22.4501 9.16003 22.0501 9.24003 21.6501C9.32003 21.2401 9.73003 20.99 10.12 21.06C10.73 21.18 11.36 21.25 11.99 21.25C17.09 21.25 21.24 17.1 21.24 12C21.24 11.38 21.18 10.7601 21.06 10.1501C20.98 9.74006 21.2401 9.35006 21.6501 9.27006C22.0501 9.19006 22.4501 9.45003 22.5301 9.86003C22.6701 10.56 22.74 11.28 22.74 12C22.75 17.93 17.93 22.75 12 22.75Z" />
</svg>
